Obsidian-SemiLight/actions/22s/im-google.svg

<svg viewBox="0 0 22 22" xmlns="http://www.w3.org/2000/svg"><path d="m11.611328 3c-.181406-.0001-.597966.0177813-1.105469.1132812-1.1995241.2262001-2.8608353 1.0383126-3.3300778 2.7578126-.7257156 2.659 1.1347657 3.7324218 1.1347657 3.7324218s.6652544.3921032.9355469.4707034c.8123312.2364 1.6796872.128906 1.6796872.128906s-.34904 1.187244.341797 2.027344c.164933.2005.046875.210937.046875.210937s-3.0217289-.072034-4.4511718 1.509766c-1.429443 1.5817-.6523437 3.033203-.6523437 3.033203s.7517506 1.915519 3.9843745 2.011719c3.246984.097 5.240622-1.908775 5.416016-3.421875.08816-.7606-.007607-1.486175-.373047-2.109375-.355513-.606-.975897-1.130072-1.572265-1.638672-.370559-.316-.628803-.484216-.794922-.666016-.156938-.1716-.191099-.384881-.185547-.550781.0078-.2317.139551-.519634.529297-.9902344.711021-.8584.89267-.7363062 1.322265-1.3789062.128789-.1926.225236-.4894032.357422-.9082032.07963-.2521999.06249-.5028937.0625-.7460937.000015-.5255-.124741-1.0387375-.326172-1.4609375-.374336-.7846-1.015038-1.2915781-1.027343-1.3300781h1.121093l1.275391-.7792969-4.294922-.015625c-.000014-.0002-.03328 0-.09375 0zm-.917969.7304688c.656518.0099999 1.633593.3567781 2.22461 2.2050781 1.01421 3.1714-1.105469 3.6679687-1.105469 3.6679687s-2.4315046.3871063-2.8789062-2.4335937c-.4557542-2.8731.6555628-3.0268469 1.0898442-3.3105469 0 0 .27601-.1317062.669921-.1289062zm1.322266 9.3613282s1.950575 1.233025 2.132813 2.140625c.204178 1.0167.217796 1.753553-1.261719 2.564453-.436762.2395-1.196948.273391-1.679688.275391-1.18652.01-2.094239-.458566-2.5371091-.697266-.2301548-.1239-1.4913611-1.63025-.5449219-2.96875.2380672-.3367.5009665-.494416.7460938-.666016.5216665-.365 1.0268137-.529387 1.9921872-.617187.321089-.029.732187.00075 1.152344-.03125z" fill="#4d4d4d"/></svg>

<svg xmlns="http://www.w3.org/2000/svg" viewBox="0 0 22 22">
  <defs id="defs3051">
    <style type="text/css" id="current-color-scheme">
      .ColorScheme-Text {
        color:#4d4d4d;
      }
      </style>
  </defs>
 <path 
     style="fill:currentColor;fill-opacity:1;stroke:none" 
     d="M 11.611328 3 C 11.429922 2.9999 11.013362 3.0177813 10.505859 3.1132812 C 9.3063349 3.3394813 7.6450237 4.1515938 7.1757812 5.8710938 C 6.4500656 8.5300938 8.3105469 9.6035156 8.3105469 9.6035156 C 8.3105469 9.6035156 8.9758013 9.9956188 9.2460938 10.074219 C 10.058425 10.310619 10.925781 10.203125 10.925781 10.203125 C 10.925781 10.203125 10.576741 11.390369 11.267578 12.230469 C 11.432511 12.430969 11.314453 12.441406 11.314453 12.441406 C 11.314453 12.441406 8.2927241 12.369372 6.8632812 13.951172 C 5.4338382 15.532872 6.2109375 16.984375 6.2109375 16.984375 C 6.2109375 16.984375 6.9626881 18.899894 10.195312 18.996094 C 13.442296 19.093094 15.435934 17.087319 15.611328 15.574219 C 15.699488 14.813619 15.603721 14.088044 15.238281 13.464844 C 14.882768 12.858844 14.262384 12.334772 13.666016 11.826172 C 13.295457 11.510172 13.037213 11.341956 12.871094 11.160156 C 12.714156 10.988556 12.679995 10.775275 12.685547 10.609375 C 12.693347 10.377675 12.825098 10.089741 13.214844 9.6191406 C 13.925865 8.7607406 14.107514 8.8828344 14.537109 8.2402344 C 14.665898 8.0476344 14.762345 7.7508312 14.894531 7.3320312 C 14.974161 7.0798313 14.957021 6.8291375 14.957031 6.5859375 C 14.957046 6.0604375 14.83229 5.5472 14.630859 5.125 C 14.256523 4.3404 13.615821 3.8334219 13.603516 3.7949219 L 14.724609 3.7949219 L 16 3.015625 L 11.705078 3 C 11.705064 2.9998 11.671798 3 11.611328 3 z M 10.693359 3.7304688 C 11.349877 3.7404687 12.326952 4.0872469 12.917969 5.9355469 C 13.932179 9.1069469 11.8125 9.6035156 11.8125 9.6035156 C 11.8125 9.6035156 9.3809954 9.9906219 8.9335938 7.1699219 C 8.4778396 4.2968219 9.5891566 4.143075 10.023438 3.859375 C 10.023438 3.859375 10.299448 3.7276688 10.693359 3.7304688 z M 12.015625 13.091797 C 12.015625 13.091797 13.9662 14.324822 14.148438 15.232422 C 14.352616 16.249122 14.366234 16.985975 12.886719 17.796875 C 12.449957 18.036375 11.689771 18.070266 11.207031 18.072266 C 10.020511 18.082266 9.112792 17.6137 8.6699219 17.375 C 8.4397671 17.2511 7.1785608 15.74475 8.125 14.40625 C 8.3630672 14.06955 8.6259665 13.911834 8.8710938 13.740234 C 9.3927603 13.375234 9.8979075 13.210847 10.863281 13.123047 C 11.18437 13.094047 11.595468 13.123797 12.015625 13.091797 z "
     class="ColorScheme-Text"
     />
</svg>
